assets/Oden/Flat/oden_flat.svg

<svg width="32" height="32" viewBox="0 0 32 32" fill="none" xmlns="http://www.w3.org/2000/svg">
<g clip-path="url(#clip0_18_29631)">
<path d="M-0.123884 -0.121336C0.461198 -0.707826 1.41094 -0.708967 1.99743 -0.123884L26.9974 24.8161C27.5839 25.4012 27.5851 26.3509 27 26.9374C26.4149 27.5239 25.4652 27.5251 24.8787 26.94L-0.121336 1.99998C-0.707826 1.4149 -0.708967 0.465154 -0.123884 -0.121336Z" fill="#D3883E"/>
<path d="M3.50999 7.34999L5.39999 14.41C6.01999 16.74 8.93999 17.52 10.64 15.81L15.81 10.64C17.52 8.92999 16.73 6.01999 14.41 5.39999L7.34999 3.50999C5.01999 2.88999 2.88999 5.01999 3.50999 7.34999Z" fill="#635994"/>
<path d="M16.78 23.63C20.5631 23.63 23.63 20.5631 23.63 16.78C23.63 12.9968 20.5631 9.92999 16.78 9.92999C12.9968 9.92999 9.92999 12.9968 9.92999 16.78C9.92999 20.5631 12.9968 23.63 16.78 23.63Z" fill="#E39D89"/>
<path d="M28.4 21.95L21.95 28.4C20.52 29.83 18.2 29.83 16.77 28.4C15.34 26.97 15.34 24.65 16.77 23.22L23.22 16.77C24.65 15.34 26.97 15.34 28.4 16.77C29.83 18.2 29.83 20.52 28.4 21.95Z" fill="#FFDEA7"/>
<path d="M23.5378 23.4909C24.1227 22.9042 25.0724 22.9028 25.6591 23.4878L29.0591 26.8778C29.6457 27.4627 29.6471 28.4124 29.0622 28.9991C28.4773 29.5857 27.5275 29.5871 26.9409 29.0022L23.5409 25.6122C22.9542 25.0273 22.9528 24.0775 23.5378 23.4909Z" fill="#D3883E"/>
</g>
<defs>
<clipPath id="clip0_18_29631">
<rect width="32" height="32" fill="white"/>
</clipPath>
</defs>
</svg>

<svg xmlns="http://www.w3.org/2000/svg" width="32" height="32" fill="none"><g clip-path="url(#a)"><path fill="#D3883E" d="M-.124-.121a1.5 1.5 0 0 1 2.121-.003l25 24.94a1.5 1.5 0 1 1-2.118 2.124L-.121 2A1.5 1.5 0 0 1-.124-.121Z"/><path fill="#635994" d="m3.51 7.35 1.89 7.06c.62 2.33 3.54 3.11 5.24 1.4l5.17-5.17c1.71-1.71.92-4.62-1.4-5.24L7.35 3.51c-2.33-.62-4.46 1.51-3.84 3.84Z"/><path fill="#E39D89" d="M16.78 23.63a6.85 6.85 0 1 0 0-13.7 6.85 6.85 0 0 0 0 13.7Z"/><path fill="#FFDEA7" d="m28.4 21.95-6.45 6.45a3.664 3.664 0 0 1-5.18-5.18l6.45-6.45a3.664 3.664 0 0 1 5.18 5.18Z"/><path fill="#D3883E" d="M23.538 23.49a1.5 1.5 0 0 1 2.121-.002l3.4 3.39a1.5 1.5 0 0 1-2.118 2.124l-3.4-3.39a1.5 1.5 0 0 1-.003-2.121Z"/></g><defs><clipPath id="a"><path fill="#fff" d="M0 0h32v32H0z"/></clipPath></defs></svg>
